assets/Shark/Flat/shark_flat.svg

<svg width="32" height="32" viewBox="0 0 32 32" fill="none" xmlns="http://www.w3.org/2000/svg">
<path d="M26 3.00006C26 2.41006 25.5 1.95006 24.91 2.00006C22.9085 2.1853 20.8988 2.86456 19.2969 3.87272C19.0074 3.8511 18.715 3.84009 18.42 3.84009H16.81C11.27 3.84009 5.69 6.45009 2.36 10.8801C1.92 11.4601 1.88 12.2601 2.26 12.8801C2.72928 13.6601 3.34132 14.3597 4.04991 14.9514H17V16.7999C17 18.0999 17.73 19.2899 18.89 19.8799L18.98 19.9299C19.45 20.1699 20 19.8299 20 19.2999V14.9514H22.4472C23.602 15.2918 24.8156 15.4801 26 15.4801V14.9514H26.033V20.8364L18.45 24.4725L18.0494 23.7128C17.841 23.7618 17.6314 23.8048 17.42 23.8401C17.14 23.8901 16.85 23.7801 16.67 23.5601L14.91 21.3601C13.71 19.8701 11.92 19.0001 10.02 19.0001H8.77C8.46 19.0001 8.28 19.3501 8.47 19.6001L13.7 26.5701C13.89 26.8201 13.9 27.1701 13.72 27.4401L12.4 29.4201C12.25 29.6701 12.43 30.0001 12.72 30.0001H14.34C15.38 30.0001 16.36 29.4801 16.94 28.6101L17.79 27.3501C17.94 27.1301 18.18 27.0001 18.45 27.0001C18.58 27.0001 18.71 27.0001 18.84 26.9901C25.04 26.7701 30 21.6801 30 15.4201C30 11.92 28.4508 8.78487 26 6.66228V3.00006Z" fill="#9B9B9B"/>
<path d="M23 13.92V11.5C23 11.31 23.18 11.17 23.39 11.22C26.09 11.95 28.06 14.43 28.03 17.37C28.01 19.5 26.88 21.47 25.09 22.63L24.14 23.25C22.29 24.45 20.2 25.24 18.03 25.57V23.72C18.13 23.7 18.22 23.67 18.32 23.65C20.1763 22.9509 24.0014 21.5848 24.0014 19.0108C24.0014 17.4577 22.4805 17.0232 21.72 17H9.15C7.3 16.91 5.47 16.15 4.03 14.95L5.44 13.74C7.5 11.97 10.13 11 12.84 11H19.73C19.88 11 20 11.12 20 11.27C20 12.49 20.61 13.64 21.63 14.33L21.91 14.51C22.37 14.82 23 14.48 23 13.92Z" fill="#D3D3D3"/>
<path d="M15 12C15 12.28 15.22 12.5 15.5 12.5C15.77 12.5 16 12.28 16 12V9.98999C16 9.71999 15.78 9.48999 15.5 9.48999C15.22 9.48999 15 9.70999 15 9.98999V12Z" fill="#636363"/>
<path d="M17 12C17 12.28 17.22 12.5 17.5 12.5C17.77 12.5 18 12.28 18 12V9.98999C18 9.70999 17.78 9.48999 17.5 9.48999C17.22 9.48999 17 9.70999 17 9.98999V12Z" fill="#636363"/>
<path d="M10.51 12C11.0623 12 11.51 11.5523 11.51 11C11.51 10.4477 11.0623 10 10.51 10C9.95771 10 9.50999 10.4477 9.50999 11C9.50999 11.5523 9.95771 12 10.51 12Z" fill="#1C1C1C"/>
</svg>

<svg xmlns="http://www.w3.org/2000/svg" width="32" height="32" fill="none"><path fill="#9B9B9B" d="M26 3c0-.59-.5-1.05-1.09-1-2.002.185-4.011.865-5.613 1.873-.29-.022-.582-.033-.877-.033h-1.61c-5.54 0-11.12 2.61-14.45 7.04-.44.58-.48 1.38-.1 2 .47.78 1.081 1.48 1.79 2.071H17V16.8c0 1.3.73 2.49 1.89 3.08l.09.05A.7.7 0 0 0 20 19.3V14.95h2.447c1.155.34 2.369.53 3.553.53v-.53h.033v5.885l-7.583 3.637-.4-.76a9.804 9.804 0 0 1-.63.127.796.796 0 0 1-.75-.28l-1.76-2.2A6.278 6.278 0 0 0 10.02 19H8.77c-.31 0-.49.35-.3.6l5.23 6.97c.19.25.2.6.02.87l-1.32 1.98c-.15.25.03.58.32.58h1.62c1.04 0 2.02-.52 2.6-1.39l.85-1.26a.79.79 0 0 1 .66-.35c.13 0 .26 0 .39-.01C25.04 26.77 30 21.68 30 15.42c0-3.5-1.55-6.635-4-8.758V3Z"/><path fill="#D3D3D3" d="M23 13.92V11.5c0-.19.18-.33.39-.28 2.7.73 4.67 3.21 4.64 6.15-.02 2.13-1.15 4.1-2.94 5.26l-.95.62c-1.85 1.2-3.94 1.99-6.11 2.32v-1.85c.1-.02.19-.05.29-.07 1.856-.7 5.681-2.065 5.681-4.64 0-1.552-1.52-1.987-2.281-2.01H9.15c-1.85-.09-3.68-.85-5.12-2.05l1.41-1.21C7.5 11.97 10.13 11 12.84 11h6.89c.15 0 .27.12.27.27 0 1.22.61 2.37 1.63 3.06l.28.18c.46.31 1.09-.03 1.09-.59Z"/><path fill="#636363" d="M15 12c0 .28.22.5.5.5.27 0 .5-.22.5-.5V9.99c0-.27-.22-.5-.5-.5s-.5.22-.5.5V12ZM17 12c0 .28.22.5.5.5.27 0 .5-.22.5-.5V9.99c0-.28-.22-.5-.5-.5s-.5.22-.5.5V12Z"/><path fill="#1C1C1C" d="M10.51 12a1 1 0 1 0 0-2 1 1 0 0 0 0 2Z"/></svg>
